brandFactory_export/2.Regular/Me gusta like_2Regular.svg

<?xml version="1.0" encoding="UTF-8"?>
<svg width="24px" height="24px" viewBox="0 0 24 24" version="1.1" xmlns="http://www.w3.org/2000/svg" xmlns:xlink="http://www.w3.org/1999/xlink">
    <title>2.Regular/Me gusta like_2Regular</title>
    <g id="Symbols" stroke="none" stroke-width="1" fill="none" fill-rule="evenodd">
        <g id="2.Regular/Me-gusta-like_2Regular" fill="#5CB615" fill-rule="nonzero">
            <path d="M3.27394958,12.9478992 C3.81176471,12.9478992 4.18823529,13.3243697 4.18823529,13.8621849 C4.18823529,14.4 3.81176471,14.7764706 3.27394958,14.7764706 C2.73613445,14.7764706 2.35966387,14.4 2.35966387,13.8621849 C2.35966387,13.3210084 2.73277311,12.9478992 3.27394958,12.9478992 Z M21.7142857,12.8907563 C21.4151261,12.6117647 21.3983193,12.1411765 21.6773109,11.8420168 L21.7176471,11.8016807 C21.9966387,11.5462185 22.1478992,11.1092437 22.1478992,10.5411765 C22.1478992,9.40168067 21.1495798,9.22352941 20.7193277,9.2 L16.6487395,9.2 L13.4285714,9.10588235 C13.0285714,9.09579832 12.7092437,8.76638655 12.712605,8.36302521 C12.712605,8.36302521 12.7226891,5.48571429 12.7226891,3.29747899 L12.7226891,3.25714286 L12.7294118,3.11260504 C12.7327731,1.94285714 12.2756303,1.47563025 11.2067227,1.47563025 C10.8134454,1.47563025 10.2823529,1.54285714 9.97310924,1.8789916 C9.74453782,2.12436975 9.64705882,2.49747899 9.68067227,2.99159664 L9.70084034,3.22016807 C9.71092437,3.3210084 9.7210084,3.41848739 9.72773109,3.53613445 C9.73109244,3.56302521 9.73445378,3.58991597 9.73445378,3.61680672 C9.76470588,5.00504202 9.78487395,6.78655462 9.64705882,8.23865546 C9.43865546,10.4235294 7.5092437,11.6705882 6.59831933,12.1378151 L6.59831933,12.1478992 C6.59831933,12.1680672 6.60504202,12.1848739 6.60504202,12.205042 L6.60504202,21.2302521 L9.57647059,21.2705882 C9.9697479,21.2705882 10.3596639,21.3815126 10.8504202,21.5226891 L11.1092437,21.5966387 C11.9865546,21.8521008 12.9781513,22.1445378 15.4756303,22.1445378 C19.6033613,22.1445378 19.8621849,21.7445378 20.1579832,20.9478992 C20.2588235,20.292437 20.1613445,20 20.0605042,19.8184874 C19.8655462,19.4588235 20,19.0117647 20.3563025,18.8168067 C20.3798319,18.8033613 20.4,18.7932773 20.4235294,18.7831933 C20.9210084,18.5781513 21.5159664,18.1848739 21.5159664,17.5092437 C21.5159664,17.0352941 21.4084034,16.6621849 21.210084,16.4268908 C21.0756303,16.2689076 21.0117647,16.0571429 21.0386555,15.8521008 C21.0655462,15.6470588 21.1798319,15.4588235 21.3512605,15.3378151 C21.8823529,14.9815126 22.1512605,14.5344538 22.1512605,14.0168067 C22.1512605,13.5361345 22.0033613,13.1596639 21.7142857,12.8907563 Z M4.85378151,21.589916 C4.99831933,21.589916 5.11596639,21.4756303 5.12268908,21.3310924 L5.12268908,12.1882353 C5.11596639,12.0436975 4.99831933,11.9294118 4.85378151,11.9294118 L1.74453782,11.9294118 C1.59327731,11.9294118 1.47226891,12.0537815 1.47226891,12.205042 L1.47226891,21.3176471 C1.47226891,21.4689076 1.59663866,21.589916 1.74453782,21.589916 L4.85378151,21.589916 Z M23.1663866,12.3462185 C23.4218487,12.7462185 23.6235294,13.2907563 23.6235294,14.0168067 C23.6235294,14.8033613 23.307563,15.5327731 22.7260504,16.1142857 C22.8773109,16.4672269 22.9915966,16.9277311 22.9915966,17.5159664 C22.9915966,18.4605042 22.497479,19.2773109 21.6134454,19.8319328 C21.697479,20.2487395 21.6907563,20.7193277 21.6,21.2672269 C21.5932773,21.3109244 21.5798319,21.3579832 21.5630252,21.3983193 C20.887395,23.2302521 19.8084034,23.6268908 15.4722689,23.6268908 C12.7630252,23.6268908 11.6134454,23.2907563 10.6890756,23.0184874 L10.4403361,22.9478992 C10.0605042,22.8369748 9.75462185,22.7495798 9.56302521,22.7495798 L6.19831933,22.7058824 C6.11764706,22.7058824 6.04369748,22.6756303 5.96638655,22.6588235 C5.65378151,22.9210084 5.2605042,23.0655462 4.85378151,23.0689076 L1.74453782,23.0689076 C0.779831933,23.0689076 0,22.2857143 0,21.3210084 L0,12.205042 C0,11.2403361 0.783193277,10.4571429 1.74453782,10.4571429 L4.85378151,10.4571429 C5.25378151,10.4571429 5.62016807,10.5983193 5.91596639,10.8268908 C6.57478992,10.4907563 8.03697479,9.57647059 8.17815126,8.09747899 C8.3092437,6.74957983 8.29243697,5.06554622 8.26218487,3.73109244 L8.25882353,3.68067227 C8.25546218,3.55630252 8.24537815,3.46554622 8.23529412,3.36806723 L8.21176471,3.09243697 C8.13109244,1.95294118 8.54117647,1.25714286 8.89411765,0.87394958 C9.42521008,0.302521008 10.2252101,1.77635684e-15 11.2067227,1.77635684e-15 C13.0823529,1.77635684e-15 14.205042,1.13613445 14.205042,3.04201681 L14.2016807,3.15966387 L14.194958,3.31764706 C14.194958,4.82689076 14.1915966,6.66218487 14.1882353,7.65378151 L16.6722689,7.72773109 L20.7663866,7.72773109 C22.2117647,7.80504202 23.6268908,8.7092437 23.6268908,10.5445378 C23.6235294,11.3478992 23.4184874,11.9294118 23.1663866,12.3462185 Z" id="Me-gusta-like_2Regular"></path>
        </g>
    </g>
</svg>

<svg width="24" height="24" viewBox="0 0 24 24" xmlns="http://www.w3.org/2000/svg"><path d="M3.274 12.948c.538 0 .914.376.914.914s-.376.914-.914.914-.914-.376-.914-.914c0-.541.373-.914.914-.914zm18.44-.057a.743.743 0 01-.037-1.049l.04-.04c.28-.256.43-.693.43-1.26 0-1.14-.997-1.318-1.428-1.342h-4.07l-3.22-.094a.735.735 0 01-.716-.743s.01-2.877.01-5.066v-.04l.006-.144c.004-1.17-.453-1.637-1.522-1.637-.394 0-.925.067-1.234.403-.228.245-.326.618-.292 1.113l.02.228c.01.101.02.198.027.316a.653.653 0 01.006.08c.03 1.389.05 3.17-.087 4.623-.208 2.185-2.138 3.432-3.049 3.899v.01c0 .02.007.037.007.057v9.025l2.971.04c.394 0 .784.112 1.274.253l.26.074c.877.255 1.868.548 4.366.548 4.127 0 4.386-.4 4.682-1.197.1-.656.003-.948-.097-1.13a.74.74 0 01.363-1.035c.497-.205 1.092-.598 1.092-1.274 0-.474-.108-.847-.306-1.082a.745.745 0 01-.171-.575.754.754 0 01.312-.514c.531-.356.8-.804.8-1.321 0-.48-.148-.857-.437-1.126zM4.854 21.59a.27.27 0 00.269-.259v-9.143a.27.27 0 00-.27-.259H1.746a.274.274 0 00-.273.276v9.113c0 .15.125.272.273.272h3.109zm18.312-9.244c.256.4.458.945.458 1.67 0 .787-.316 1.517-.898 2.098.151.353.266.814.266 1.402 0 .945-.495 1.761-1.379 2.316.084.417.078.887-.013 1.435a.584.584 0 01-.037.131c-.676 1.832-1.755 2.229-6.09 2.229-2.71 0-3.86-.336-4.784-.609l-.249-.07c-.38-.111-.685-.198-.877-.198l-3.365-.044c-.08 0-.154-.03-.232-.047a1.753 1.753 0 01-1.112.41h-3.11A1.746 1.746 0 010 21.32v-9.116c0-.965.783-1.748 1.745-1.748h3.109c.4 0 .766.141 1.062.37.659-.336 2.121-1.25 2.262-2.73.131-1.347.114-3.031.084-4.366l-.003-.05c-.004-.125-.014-.215-.024-.313l-.023-.276c-.08-1.14.33-1.835.682-2.218C9.425.303 10.225 0 11.207 0c1.875 0 2.998 1.136 2.998 3.042l-.003.118-.007.158c0 1.509-.003 3.344-.007 4.336l2.484.074h4.094c1.446.077 2.86.981 2.86 2.817-.002.803-.208 1.384-.46 1.801z" fill="#5CB615" fill-rule="nonzero"/></svg>
